public/images/svg/bg-desktop.svg

<svg xmlns="http://www.w3.org/2000/svg" width="1512" height="847" fill="none"><path fill="#545CBF" fill-rule="evenodd" d="M770.937 0 596.16 308.439c-10.796 19.052-4.103 43.249 14.95 54.045l334.867 189.752c19.052 10.796 43.433 4.137 52.585-15.758C1083.74 351.32 1036.81 134.103 889.605 0H770.937Zm236.053 0c127.9 160.617 158.85 385.245 66.6 578.968-9.42 19.771-2.88 43.947 16.17 54.743l280.29 158.827c19.05 10.796 43.25 4.103 54.05-14.95l87.51-154.444V398.497C1394.38 296.268 1328.17 150.532 1323.69 0h-316.7Zm402.72 0c3.49 99.45 38.91 196.287 101.9 274.811V0h-101.9Z" clip-rule="evenodd"/></svg>

<svg width="1512" height="847" viewBox="0 0 1512 847" fill="none" xmlns="http://www.w3.org/2000/svg">
<path fill-rule="evenodd" clip-rule="evenodd" d="M770.937 0L596.16 308.439C585.364 327.491 592.057 351.688 611.11 362.484L945.977 552.236C965.029 563.032 989.41 556.373 998.562 536.478C1083.74 351.32 1036.81 134.103 889.605 0H770.937ZM1006.99 0C1134.89 160.617 1165.84 385.245 1073.59 578.968C1064.17 598.739 1070.71 622.915 1089.76 633.711L1370.05 792.538C1389.1 803.334 1413.3 796.641 1424.1 777.588L1511.61 623.144V398.497C1394.38 296.268 1328.17 150.532 1323.69 0H1006.99ZM1409.71 0C1413.2 99.4502 1448.62 196.287 1511.61 274.811L1511.61 0H1409.71Z" fill="#234B7A"/>
</svg>
